X: 305710
M: 6/8
L: 1/8
K: G
d2g d2b | g3 d2B | c2A a2g | fge d2 B/c/ |\
d2g d2b | g3 d2B | Aag fef | a3 g2 H|]
a |\
a2g g2f | f2e e2d | e2d d2c | c2B B2b |\
b2a a2g | g2f f2g | aba fef | a3 "^D.C."g2 |]
egf egb | [e'3e3] b3 | g2e f2^d | e3 B3 |\
egf egb | e'3 b3 | g2e f2^d | e3 "^E.C."e2 |]


